X: 31654
T: Parnell's March
R: jig
M: 6/8
K: Gmajor
d2c|:BGD BGD|d3- d2c|BGD BGD|d3- d2c|
B3 BAB|ded dcB|A2 d d^cd|A2 d d^cd|
BGD BGD|d3 dcB|cBc cde|gag gfe|
d2 B GAB|c2 AF2G|A2 G GAF|1 G3 d2c:|2 G3 g2 f||
ecc cdB|c2zgfe|d2 d ded|B3 B2 c|
d3 dcd|e2 e dcB|A2 d d^cd|A2 d d^cd|
BGD BGD|d3 dcB|cBc cde|gag gfe|
d2 B GAB|c2 AF2G|A2 G GAF|1 G3 g2 f:|2 G3 d2c||

